icons/arrow-curve-left-down-filled.svg

<svg viewBox="0 0 24 24"><path fill="currentColor" fill-rule="evenodd" d="M18 2.4a3.6 3.6 0 0 1 3.6 3.6v12a3.6 3.6 0 0 1-3.6 3.6h-12a3.6 3.6 0 0 1-3.6-3.6v-12a3.6 3.6 0 0 1 3.6-3.6zm0 4.6a1 1 0 1 0-2 0v4.6a1 1 0 0 1-1 1h-5.7l1.6-1.7a1 1 0 1 0-1.5-1.4l-3.1 3.4a1 1 0 0 0 0 1.4l3.1 3.4a1 1 0 0 0 1.5-1.4l-1.6-1.7h5.7a3 3 0 0 0 3-3z" clip-rule="evenodd"/></svg>

<svg viewBox="0 0 24 24"><path fill="currentColor" fill-rule="evenodd" d="M18 2.4A3.6 3.6 0 0 1 21.6 6v12a3.6 3.6 0 0 1-3.6 3.6H6A3.6 3.6 0 0 1 2.4 18V6A3.6 3.6 0 0 1 6 2.4zM18 7a1 1 0 1 0-2 0v4.6a1 1 0 0 1-1 1H9.3l1.6-1.7a1 1 0 1 0-1.5-1.4L6.3 13a1 1 0 0 0 0 1.4l3.1 3.4a1 1 0 0 0 1.5-1.4l-1.6-1.7H15a3 3 0 0 0 3-3z" clip-rule="evenodd"/></svg>
